!!!COM: Mozart, Wolfgang Amadeus
!!!OTL: Musikalische Würfelspiele, Kontre-Tänze
!!!SCA: K<sup>6</sup> Anh. C30.01 (K<sup>3</sup> Anh. 294d)
**kern	**kern
*staff2	*staff2
*clefF4	*clefG2
*M2/4	*M2/4
*MM110	*MM110
*>[A,A1,A,A2,B]	*>[A,A1,A,A2,B]
*>norep[A,A2,B]	*>norep[A,A2,B]
*>A	*>A
=165	=165
4C	8cc
.	16ee
.	16cc
4r	8g
.	8g
=68	=68
4C	8gg
.	16gg
.	16ee
4r	8cc
.	16cc
.	16ee
=160	=160
16GG	8dd
16BB	.
16D	8b
16BB	.
4GG	16g
.	16b
.	16dd
.	16b
=37	=37
16C	8cc
16c	.
16B	8ee
16c	.
4C	4g
=111	=111
4D	8d
.	16f#
.	16a
4D	8dd
.	8ff#
=123	=123
4G	8gg
.	8dd
4GG	8b
.	8g
=143	=143
4C	8ee
.	8cc
4D	8a
.	8f#
=130	=130
*>A1	*>A1
4GG	4g 4b 4gg
16G	4r
16F	.
16E	.
16D	.
=130:|!	=130:|!
*>A2	*>A2
4GG	4g 4b 4gg
16GG	4r
16AA	.
16BB	.
16C#	.
=144||	=144||
*>B	*>B
4D	8d
.	16f#
.	16a
4D	8dd
.	8ff#
=157	=157
4G	16gg
.	16aa
.	16bb
.	16ccc
4GG	4ddd
=138	=138
16C	8gg
16E	.
16G	4ee
16E	.
16C	.
16E	.
16G	8cc
16E	.
=19	=19
4GG	16dd
.	16b
.	16cc
.	16a
4r	16g
.	16gg
.	16ff
.	16dd
=134	=134
4C	16cc
.	16ee
.	16gg
.	16ee
4r	16cc
.	16g
.	16cc
.	16ee
=32	=32
4C	8ccc
.	8gg
4r	8ee
.	8cc
=159	=159
4G	8dd
.	4ff
4GG	.
.	16dd
.	16b
=127	=127
4C	4cc
4CC	4c
==	==
*-	*-
